X: 1
T:Emily Kate MacLellan
M:C|
L:1/8
Q:80
C:Scott MacAulay
S:Hornpipe
K:HP
|: {g}e3/4A/4{g}A3/4e/4{g}A3/4e/4{A}e3/4d/4|
{g}B3/4{d}A/4{e}A3/4{d}B/4{g}G3/4A/4{g}B3/4d/4|
{g}e3/4A/4{g}A3/4e/4{g}A3/4e/4{A}e3/4d/4|  !
{g}e3/4g/4{a}g3/4e/4{g}d3/4B/4{g}G3/4{d}B/4|
{g}e3/4A/4{g}A3/4e/4{g}A3/4e/4{A}e3/4d/4|
{g}B3/4{d}A/4{e}A3/4{d}B/4{g}G3/4A/4{g}B3/4G/4|  !
{g}A3/4a/4{g}a3/4e/4{a}g3/4d/4{g}B3/4G/4|
{g}A2{GAG}Ae:| |:
{gAGAG}AaA3/4a/4{g}a3/4d/4|  !
{g}e3/4a/4{g}a3/4e/4{a}g3/4e/4{g}d3/4B/4|
{gAGAG}AaA3/4a/4{g}a3/4d/4|
e3/4g/4{a}g3/4e/4g3/4e/4{g}d3/4B/4|  !
{gAGAG}AaA3/4a/4{g}a3/4d/4|
{g}e3/4a/4{g}a3/4e/4{a}g3/4e/4{g}d3/4B/4|
{g}A3/4a/4{g}a3/4e/4{a}g3/4d/4{g}B3/4G/4|  !
{g}A2{GAG}Ae:| |:
{g}A3/4e/4{g}A3/4e/4{g}e3/4A/4{g}A3/4{d}B/4|
{g}A3/4e/4{g}e3/4A/4{g}e3/4d/4{g}B3/4G/4|  !
{g}A3/4e/4{g}A3/4e/4{g}e3/4A/4{g}e3/4d/4|
{g}e3/4g/4{a}g3/4e/4g3/4e/4{g}d3/4B/4|
{g}A3/4e/4{g}A3/4e/4{g}e3/4A/4{g}A3/4{d}B/4|  !
{g}A3/4e/4{g}e3/4A/4{g}e3/4d/4{g}B3/4G/4|
{g}A3/4a/4{g}a3/4e/4{a}g3/4d/4{g}B3/4G/4|
{g}A2{GAG}Ae:| |:  !
{g}A3/4a/4A3/4a/4{g}a3/4A/4{g}A3/4{d}B/4|
{g}A3/4a/4{g}a3/4e/4{a}g3/4d/4{g}B3/4G/4|
{g}A3/4a/4A3/4a/4{g}a3/4A/4{g}A3/4d/4|  !
e3/4g/4{a}g3/4e/4g3/4e/4{g}d3/4B/4|
{g}A3/4a/4A3/4a/4{g}a3/4A/4{g}A3/4{d}B/4|
{g}A3/4a/4{g}a3/4e/4{a}g3/4d/4{g}B3/4G/4|  !
{g}A3/4a/4{g}a3/4e/4{a}g3/4d/4{g}B3/4G/4|
{g}A2{GAG}Ae:|
